X: 310
T: THE BANKS OF THE SHANNON
T: Bruacha na sionain
B: O'Neill's 310
M: 3/8
L: 1/8
Z: 1999 by John Chambers <jc@trillian.mit.edu>
N: "Slow"
N: "Collected by O'Brien"
K:G
(G/E/) \
|DE G/A/|BB A/G/|E/F/ GG|AG E/D/ \
|E/F/ GA|Bg 3f/e/d/|e2 d/e/|d2||
||d/e/ \
|gg e/d/|eg e/d/|eB A/G/|G/E/ HD 3G/B/d/ \
|e2 d/c/|cB/A/ B A/G/|EB A/G/|G2||
